src/assets/metronic/worbby/global/img/Worbbior Profile Edit Icons/SVGs/icon-my-data.svg

<?xml version="1.0" encoding="UTF-8"?>
<svg width="50px" height="24px" viewBox="0 0 50 24" version="1.1" xmlns="http://www.w3.org/2000/svg" xmlns:xlink="http://www.w3.org/1999/xlink">
    <!-- Generator: Sketch 42 (36781) - http://www.bohemiancoding.com/sketch -->
    <title>icon-my-data</title>
    <desc>Created with Sketch.</desc>
    <defs></defs>
    <g id="Symbols" stroke="none" stroke-width="1" fill="none" fill-rule="evenodd">
        <g id="icon-my-data" fill="#FFCB33">
            <g>
                <path d="M16.9406278,16.2716936 C16.845307,16.204491 15.9874196,15.5324643 15.9874196,13.9772027 C15.9874196,13.9244006 15.9662372,13.8811988 15.955646,13.8331969 C16.9088542,12.8491579 17.3166155,11.6683111 17.4595967,11.13549 C17.920314,9.42662224 17.8091063,6.71931491 17.7985151,6.56570882 C17.7402635,6.02808751 17.6502383,5.51446715 17.5284395,5.0440485 C19.2389186,2.24553755 17.6025779,0.330261622 17.5337351,0.248658387 C17.3325023,0.0182492528 16.977697,-0.0633539824 16.6811433,0.0518505849 C16.6652565,0.0566507752 15.1930794,0.594272089 11.8303728,0.594272089 L10.9565986,0.589471899 C9.33084906,0.589471899 7.5091623,0.714276847 6.46592889,2.17833489 C5.47035589,3.57999046 5.97873359,5.97048523 6.15348843,6.65211225 C6.13760162,7.03612747 6.06875881,9.52742624 6.49770249,11.13549 C6.64597932,11.6779115 7.06433181,12.8779591 8.044018,13.8715985 C8.0387224,13.9051998 8.0228356,13.9388011 8.0228356,13.9772027 C8.0228356,15.5084634 7.19142623,16.1852902 7.08551421,16.2668934 C0.20123284,19.9534396 0,23.0015604 0,23.3375737 C0,23.697588 0.317736063,23.9855994 0.714906142,23.9951998 L0.730792946,23.9951998 C1.12266742,23.9951998 1.44569909,23.7071884 1.46158589,23.3519743 C1.46158589,23.3279734 1.65752313,20.8030733 7.5515271,17.5581446 L8.0334268,18.9838011 C8.05460921,19.0702046 8.59476051,21.1150856 11.999832,21.1150856 C15.1401234,21.1150856 15.7967779,19.4734205 15.8973944,19.1470076 L16.4428413,17.5533444 C22.2838892,20.7598715 22.5327825,23.2751713 22.5380781,23.3471741 C22.5486693,23.7071884 22.871701,24 23.268871,24 C23.6713367,24 23.999664,23.7023882 23.999664,23.3375737 C24.0102552,23.0015604 23.8143179,19.9726403 16.9406278,16.2716936 L16.9406278,16.2716936 Z M7.69980393,2.89356324 C8.28232005,2.0727307 9.33614466,1.91432442 10.9565986,1.91432442 L11.8303728,1.91912461 C14.282236,1.91912461 15.8338472,1.65031396 16.6228917,1.45830634 C16.871785,2.00072785 17.1153826,3.09037105 16.1568788,4.55442909 L16.1568788,4.55442909 L16.1568788,4.55442909 C15.9397592,4.83284013 14.7641357,5.26965744 12.9477446,5.30805897 C11.6768003,5.33686011 10.5647241,5.15445288 9.97161679,4.81843955 C9.80215755,4.72243575 9.59562911,4.69363461 9.40498747,4.73683632 C9.21434584,4.78003803 9.0448866,4.8952426 8.94956578,5.05364888 C8.94427018,5.06324926 8.49414409,5.72087533 7.49857109,5.92248332 C7.31852066,5.03924831 7.18613063,3.61359179 7.69980393,2.89356324 L7.69980393,2.89356324 Z M14.4887645,18.8061941 C14.4781733,18.8445956 14.1657328,19.7854329 12.0051276,19.7854329 C9.82333996,19.7854329 9.47912589,18.7245909 9.45264788,18.6429876 L8.72715054,16.5021027 C9.00252179,16.1084871 9.26730185,15.5660656 9.39439627,14.8556375 C10.08812,15.196451 10.9354162,15.4220599 11.973354,15.4220599 C13.0324742,15.4220599 13.8903616,15.1916508 14.5946765,14.8364367 C14.7217709,15.5564653 14.9918466,16.1084871 15.2672178,16.5069029 L14.4887645,18.8061941 L14.4887645,18.8061941 Z M11.9839452,14.0972074 C9.11372942,14.0972074 8.19229483,11.8075166 7.92751478,10.8234776 C7.63625672,9.7434348 7.60448312,8.11617029 7.61507432,7.25213604 C8.66889893,7.09372976 9.38380507,6.59931016 9.79156635,6.21049474 C10.6229757,6.51290673 11.7509387,6.66651282 12.9848138,6.63291149 C14.0810032,6.60891054 15.3307651,6.43610369 16.2574952,6.05688865 C16.2892688,6.25369645 16.3263381,6.45530445 16.3475205,6.65691244 C16.3475205,6.68091339 16.4534325,9.29221692 16.0456712,10.8234776 C15.7755955,11.8027164 14.8488654,14.0972074 11.9839452,14.0972074 L11.9839452,14.0972074 Z" id="Shape"></path>
                <path d="M28,14 L49,14" id="Path-2" stroke="#FFCB33" stroke-width="2" stroke-linecap="round"></path>
                <path d="M28,9 L49,9" id="Path-2" stroke="#FFCB33" stroke-width="2" stroke-linecap="round"></path>
                <path d="M28,4 L41,4" id="Path-2" stroke="#FFCB33" stroke-width="2" stroke-linecap="round"></path>
            </g>
        </g>
    </g>
</svg>

<svg xmlns="http://www.w3.org/2000/svg" width="50" height="24"><g fill="#FFCB33" fill-rule="evenodd"><path d="M16.9406 16.2717c-.0953-.0672-.9532-.7392-.9532-2.2945 0-.0528-.0212-.096-.0318-.144.9533-.984 1.361-2.165 1.504-2.6977.4607-1.709.3495-4.4162.339-4.5698-.0583-.5376-.1484-1.0512-.2702-1.5217 1.7105-2.7985.0742-4.7137.0053-4.7953-.2012-.2305-.556-.312-.8526-.1968-.0157.0047-1.488.5423-4.8506.5423l-.8738-.0048c-1.6258 0-3.4474.1248-4.4907 1.5888-.9956 1.4017-.4873 3.7922-.3125 4.4738-.016.384-.0847 2.8754.3442 4.4835.1483.5424.5666 1.7425 1.5463 2.736-.0053.0337-.0212.0673-.0212.1057 0 1.5313-.8314 2.208-.9373 2.2897C.2012 19.9533 0 23.0015 0 23.3375c0 .36.3177.648.715.6576h.0158c.392 0 .715-.288.7308-.6432 0-.024.196-2.549 6.09-5.794l.4818 1.4258c.0212.0864.5614 2.1313 3.9664 2.1313 3.1403 0 3.797-1.6416 3.8976-1.968l.5454-1.5937c5.841 3.2066 6.09 5.722 6.0953 5.794.0107.36.3337.6527.731.6527.4023 0 .7307-.2976.7307-.6624.0106-.336-.1854-3.365-7.059-7.066zM7.6998 2.8937c.5825-.821 1.6363-.9794 3.2568-.9794l.8738.0048c2.4518 0 4.0034-.2687 4.7925-.4607.2488.5424.4924 1.632-.466 3.096-.2172.2785-1.393.7154-3.2093.7538-1.271.029-2.383-.1535-2.976-.4896-.1695-.096-.376-.1248-.5667-.0816-.1907.0432-.36.1584-.4554.3168-.0053.0096-.4555.6673-1.451.869-.18-.8834-.3125-2.309.2012-3.029zm6.789 15.9125c-.0106.0384-.323.9792-2.4837.9792-2.1817 0-2.526-1.0608-2.5524-1.1424l-.7254-2.141c.2753-.3935.54-.936.6672-1.6464.6937.341 1.541.5665 2.579.5665 1.059 0 1.917-.2303 2.6213-.5856.127.72.397 1.272.6725 1.6705l-.7784 2.2992zm-2.505-4.709c-2.87 0-3.7915-2.2897-4.0563-3.2737-.2912-1.08-.323-2.7073-.3124-3.5714 1.054-.1583 1.7688-.6527 2.1766-1.0415.8314.3024 1.9593.456 3.1932.4224 1.0962-.024 2.346-.197 3.2727-.576.0318.1967.0688.3983.09.6 0 .024.106 2.6352-.3018 4.1665-.27.9792-1.1968 3.2737-4.0618 3.2737z"/><path stroke="#FFCB33" stroke-width="2" d="M28 14h21M28 9h21M28 4h13" stroke-linecap="round"/></g></svg>
